svgs/sharp-light/crop-simple.svg

<svg xmlns="http://www.w3.org/2000/svg" viewBox="0 0 512 512"><!--! Font Awesome Pro 6.6.0 by @fontawesome - https://fontawesome.com License - https://fontawesome.com/license (Commercial License) Copyright 2024 Fonticons, Inc. --><path d="M128 16l0-16L96 0l0 16 0 80L16 96 0 96l0 32 16 0 80 0 0 272 0 16 16 0 240 0 0-32-224 0 0-368zM384 496l0 16 32 0 0-16 0-80 80 0 16 0 0-32-16 0-80 0 0-272 0-16-16 0L160 96l0 32 224 0 0 368z"/></svg>

<svg xmlns="http://www.w3.org/2000/svg" viewBox="0 0 512 512"><!--! Font Awesome Pro 6.4.2 by @fontawesome - https://fontawesome.com License - https://fontawesome.com/license (Commercial License) Copyright 2023 Fonticons, Inc. --><path d="M128 16V0H96V16 96H16 0v32H16 96V400v16h16H352V384H128V16zM384 496v16h32V496 416h80 16V384H496 416l0-272V96H400L160 96v32l224 0 0 368z"/></svg>
